img/icons/CSS3.svg

<svg width="56" height="56" viewBox="0 0 56 56" fill="none" xmlns="http://www.w3.org/2000/svg">
<circle cx="28" cy="28" r="22" fill="#C4C4C4" fill-opacity="0.4"/>
<path d="M17 15L19.2768 42L29.5 45L39.7196 42.0019L42 15H17Z" fill="#2196F3"/>
<path d="M37.1321 23.8294L36.8446 27.2213L35.9768 37.3894L29.5 39.27L29.4946 39.2719L23.0214 37.3894L22.5696 32.0719H25.7411L25.9768 34.83L29.4964 35.8275L29.4982 35.8256L33.0232 34.8281L33.5036 30.2325L22.4178 30.2644L22.1036 27.1219L33.7696 26.9775L34.0053 23.6138L21.7911 23.6494L21.5857 20.52H29.5H37.4143L37.1321 23.8294Z" fill="#FAFAFA"/>
<path d="M9.63035 6.86813C4.66072 11.1882 1.37261 17.1215 0.343838 23.6255C-0.684936 30.1294 0.611446 36.7879 4.00518 42.4308C7.39891 48.0737 12.6728 52.3401 18.9002 54.4801C25.1276 56.6201 31.91 56.4969 38.0555 54.1321C44.2011 51.7673 49.3166 47.3122 52.5031 41.5498C55.6897 35.7873 56.7434 29.0861 55.479 22.6238C54.2147 16.1615 50.7133 10.3515 45.59 6.21486C40.4667 2.07818 34.0494 -0.120531 27.4658 0.00509616L27.5476 4.28922C33.1237 4.18282 38.5589 6.04505 42.8982 9.54869C47.2374 13.0523 50.203 17.9732 51.2738 23.4466C52.3447 28.9199 51.4523 34.5956 48.7534 39.4762C46.0545 44.3568 41.7218 48.1301 36.5167 50.133C31.3116 52.1359 25.5672 52.2403 20.2928 50.4278C15.0184 48.6152 10.5515 45.0018 7.67716 40.2224C4.80278 35.4431 3.70478 29.8035 4.57612 24.2949C5.44746 18.7862 8.23238 13.7609 12.4415 10.102L9.63035 6.86813Z" fill="#3B5999"/>
</svg>

<svg width="56" height="56" fill="none" xmlns="http://www.w3.org/2000/svg"><circle cx="28" cy="28" r="22" fill="#C4C4C4" fill-opacity=".4"/><path d="M17 15l2.277 27L29.5 45l10.22-2.998L42 15H17z" fill="#2196F3"/><path d="M37.132 23.83l-.287 3.391-.868 10.168L29.5 39.27l-.005.002-6.474-1.883-.451-5.317h3.171l.236 2.758 3.52.998.001-.002 3.525-.998.48-4.596-11.085.032-.314-3.142 11.666-.145.235-3.363-12.214.035-.205-3.129h15.828l-.282 3.31z" fill="#FAFAFA"/><path d="M9.63 6.868A28 28 0 1027.466.005l.082 4.284a23.715 23.715 0 11-15.106 5.813L9.63 6.868z" fill="#3B5999"/></svg>
